www/images/down@2x.svg

<svg fill="none" height="54" viewBox="0 0 54 54" width="54" xmlns="http://www.w3.org/2000/svg"><path d="m31.86 17.28v-3.78c0-.2148-.0853-.4208-.2372-.5728-.1519-.1519-.358-.2372-.5728-.2372h-10.7082c-.2148 0-.4208.0853-.5727.2372-.1519.152-.2373.358-.2373.5728v3.699l-2.052 2.8944c-.0971.1375-.1498.3015-.1512.4698v9.1368c0 .6917.2748 1.3551.7639 1.8443.4892.4891 1.1526.7639 1.8443.7639h.0918c.3552.0013.7066-.0723 1.0314-.216.036.4429.1854.869.4339 1.2374.2485.3683.5877.6665.9849.8656.3973.1992.8391.2926 1.2829.2714s.8747-.1564 1.2511-.3926c.2281.3907.5544.7149.9466.9403.3922.2255.8366.3444 1.289.3449.3395.001.6758-.0669.9882-.1998v3.5532c.0306.6719.319 1.3062.8053 1.7709.4863.4646 1.133.7239 1.8056.7239s1.3193-.2593 1.8056-.7239c.4863-.4647.7747-1.099.8053-1.7709v-7.56c.8267.0221 1.6291-.2803 2.2356-.8424 1.1394-1.0422 1.3122-2.6352.4698-4.2498zm2.7 11.88c-.3125.279-.7208.426-1.1394.4104v-.702c0-.2148-.0853-.4208-.2372-.5728-.1519-.1519-.358-.2372-.5728-.2372s-.4208.0853-.5727.2372c-.152.152-.2373.358-.2373.5728v9.882c-.0185.2502-.1309.4841-.3147.6548s-.4253.2656-.6762.2656c-.2508 0-.4924-.0949-.6762-.2656s-.2962-.4046-.3147-.6548v-9.8712c0-.2148-.0853-.4208-.2372-.5728-.1519-.1519-.358-.2372-.5728-.2372s-.4208.0853-.5727.2372c-.1519.152-.2373.358-.2373.5728v3.8718c0 .2621-.1041.5134-.2894.6988-.1853.1853-.4367.2894-.6988.2894s-.5134-.1041-.6988-.2894c-.1853-.1854-.2894-.4367-.2894-.6988v-3.8718c0-.2148-.0853-.4208-.2372-.5728-.1519-.1519-.358-.2372-.5728-.2372s-.4208.0853-.5727.2372c-.1519.152-.2373.358-.2373.5728v2.9808c-.0185.2502-.1309.4841-.3147.6548s-.4253.2656-.6762.2656c-.2508 0-.4924-.0949-.6762-.2656s-.2962-.4046-.3147-.6548v-4.2066c0-.2148-.0853-.4208-.2372-.5728-.1519-.1519-.358-.2372-.5728-.2372s-.4208.0853-.5727.2372c-.1519.152-.2373.358-.2373.5728v.918.0378 1.08c0 .2621-.1041.5134-.2894.6988-.1853.1853-.4367.2894-.6988.2894h-.0918c-.2574-.0042-.503-.1087-.6845-.2912-.1816-.1826-.2847-.4288-.2875-.6862v-8.8884l2.0574-2.8944c.0965-.1375.1474-.3018.1458-.4698v-3.1482h9.0882v3.1482c-.0001.1234.0276.2452.081.3564l4.374 8.991c.513.972.4698 1.7928-.135 2.3274z" fill="#000"/><path d="m34.56 29.16c-.3125.279-.7208.426-1.1394.4104v-.702c0-.2148-.0853-.4208-.2372-.5728-.1519-.1519-.358-.2372-.5728-.2372s-.4208.0853-.5727.2372c-.152.152-.2373.358-.2373.5728v9.882c-.0185.2502-.1309.4841-.3147.6548s-.4253.2656-.6762.2656c-.2508 0-.4924-.0949-.6762-.2656s-.2962-.4046-.3147-.6548v-9.8712c0-.2148-.0853-.4208-.2372-.5728-.1519-.1519-.358-.2372-.5728-.2372s-.4208.0853-.5727.2372c-.1519.152-.2373.358-.2373.5728v3.8718c0 .2621-.1041.5134-.2894.6988-.1853.1853-.4367.2894-.6988.2894s-.5134-.1041-.6988-.2894c-.1853-.1854-.2894-.4367-.2894-.6988v-3.8718c0-.2148-.0853-.4208-.2372-.5728-.1519-.1519-.358-.2372-.5728-.2372s-.4208.0853-.5727.2372c-.1519.152-.2373.358-.2373.5728v2.9808c-.0185.2502-.1309.4841-.3147.6548s-.4253.2656-.6762.2656c-.2508 0-.4924-.0949-.6762-.2656s-.2962-.4046-.3147-.6548v-4.2066c0-.2148-.0853-.4208-.2372-.5728-.1519-.1519-.358-.2372-.5728-.2372s-.4208.0853-.5727.2372c-.1519.152-.2373.358-.2373.5728v.918.0378 1.08c0 .2621-.1041.5134-.2894.6988-.1853.1853-.4367.2894-.6988.2894h-.0918c-.2574-.0042-.503-.1087-.6845-.2912-.1816-.1826-.2847-.4288-.2875-.6862v-8.8884l2.0574-2.8944c.0965-.1375.1474-.3018.1458-.4698v-3.1482h9.0882v3.1482c-.0001.1234.0276.2452.081.3564l4.374 8.991c.513.972.4698 1.7928-.135 2.3274z" fill="#fff"/></svg>

<svg width="54" height="54" viewBox="0 0 54 54" fill="none" xmlns="http://www.w3.org/2000/svg">
<path d="M31.86 17.28V13.5C31.86 13.2852 31.7747 13.0792 31.6228 12.9272C31.4709 12.7753 31.2648 12.69 31.05 12.69H20.3418C20.127 12.69 19.921 12.7753 19.7691 12.9272C19.6172 13.0792 19.5318 13.2852 19.5318 13.5V17.199L17.4798 20.0934C17.3827 20.2309 17.33 20.3949 17.3286 20.5632V29.7C17.3286 30.3917 17.6034 31.0551 18.0925 31.5443C18.5817 32.0334 19.2451 32.3082 19.9368 32.3082H20.0286C20.3838 32.3095 20.7352 32.2359 21.06 32.0922C21.096 32.5351 21.2454 32.9612 21.4939 33.3296C21.7424 33.6979 22.0816 33.9961 22.4788 34.1952C22.8761 34.3944 23.3179 34.4878 23.7617 34.4666C24.2055 34.4454 24.6364 34.3102 25.0128 34.074C25.2409 34.4647 25.5672 34.7889 25.9594 35.0143C26.3516 35.2398 26.796 35.3587 27.2484 35.3592C27.5879 35.3602 27.9242 35.2923 28.2366 35.1594V38.7126C28.2672 39.3845 28.5556 40.0188 29.0419 40.4835C29.5282 40.9481 30.1749 41.2074 30.8475 41.2074C31.5201 41.2074 32.1668 40.9481 32.6531 40.4835C33.1394 40.0188 33.4278 39.3845 33.4584 38.7126V31.1526C34.2851 31.1747 35.0875 30.8723 35.694 30.3102C36.8334 29.268 37.0062 27.675 36.1638 26.0604L31.86 17.28ZM34.56 29.16C34.2475 29.439 33.8392 29.586 33.4206 29.5704V28.8684C33.4206 28.6536 33.3353 28.4476 33.1834 28.2956C33.0315 28.1437 32.8254 28.0584 32.6106 28.0584C32.3958 28.0584 32.1898 28.1437 32.0379 28.2956C31.8859 28.4476 31.8006 28.6536 31.8006 28.8684V38.7504C31.7821 39.0006 31.6697 39.2345 31.4859 39.4052C31.3021 39.5759 31.0606 39.6708 30.8097 39.6708C30.5589 39.6708 30.3173 39.5759 30.1335 39.4052C29.9497 39.2345 29.8373 39.0006 29.8188 38.7504V28.8792C29.8188 28.6644 29.7335 28.4584 29.5816 28.3064C29.4297 28.1545 29.2236 28.0692 29.0088 28.0692C28.794 28.0692 28.588 28.1545 28.4361 28.3064C28.2842 28.4584 28.1988 28.6644 28.1988 28.8792V32.751C28.1988 33.0131 28.0947 33.2644 27.9094 33.4498C27.7241 33.6351 27.4727 33.7392 27.2106 33.7392C26.9485 33.7392 26.6972 33.6351 26.5118 33.4498C26.3265 33.2644 26.2224 33.0131 26.2224 32.751V28.8792C26.2224 28.6644 26.1371 28.4584 25.9852 28.3064C25.8333 28.1545 25.6272 28.0692 25.4124 28.0692C25.1976 28.0692 24.9916 28.1545 24.8397 28.3064C24.6878 28.4584 24.6024 28.6644 24.6024 28.8792V31.86C24.5839 32.1102 24.4715 32.3441 24.2877 32.5148C24.1039 32.6855 23.8624 32.7804 23.6115 32.7804C23.3607 32.7804 23.1191 32.6855 22.9353 32.5148C22.7515 32.3441 22.6391 32.1102 22.6206 31.86V27.6534C22.6206 27.4386 22.5353 27.2326 22.3834 27.0806C22.2315 26.9287 22.0254 26.8434 21.8106 26.8434C21.5958 26.8434 21.3898 26.9287 21.2379 27.0806C21.086 27.2326 21.0006 27.4386 21.0006 27.6534V28.5714C21.0006 28.5714 21.0006 28.5984 21.0006 28.6092V29.6892C21.0006 29.9513 20.8965 30.2026 20.7112 30.388C20.5259 30.5733 20.2745 30.6774 20.0124 30.6774H19.9206C19.6632 30.6732 19.4176 30.5687 19.2361 30.3862C19.0545 30.2036 18.9514 29.9574 18.9486 29.7V20.8116L21.006 17.9172C21.1025 17.7797 21.1534 17.6154 21.1518 17.4474V14.2992H30.24V17.4474C30.2399 17.5708 30.2676 17.6926 30.321 17.8038L34.695 26.7948C35.208 27.7668 35.1648 28.5876 34.56 29.1222V29.16Z" fill="black"/>
<path d="M34.56 29.16C34.2475 29.439 33.8392 29.586 33.4206 29.5704V28.8684C33.4206 28.6536 33.3353 28.4476 33.1834 28.2956C33.0315 28.1437 32.8254 28.0584 32.6106 28.0584C32.3958 28.0584 32.1898 28.1437 32.0379 28.2956C31.8859 28.4476 31.8006 28.6536 31.8006 28.8684V38.7504C31.7821 39.0006 31.6697 39.2345 31.4859 39.4052C31.3021 39.5759 31.0606 39.6708 30.8097 39.6708C30.5589 39.6708 30.3173 39.5759 30.1335 39.4052C29.9497 39.2345 29.8373 39.0006 29.8188 38.7504V28.8792C29.8188 28.6644 29.7335 28.4584 29.5816 28.3064C29.4297 28.1545 29.2236 28.0692 29.0088 28.0692C28.794 28.0692 28.588 28.1545 28.4361 28.3064C28.2842 28.4584 28.1988 28.6644 28.1988 28.8792V32.751C28.1988 33.0131 28.0947 33.2644 27.9094 33.4498C27.7241 33.6351 27.4727 33.7392 27.2106 33.7392C26.9485 33.7392 26.6972 33.6351 26.5118 33.4498C26.3265 33.2644 26.2224 33.0131 26.2224 32.751V28.8792C26.2224 28.6644 26.1371 28.4584 25.9852 28.3064C25.8333 28.1545 25.6272 28.0692 25.4124 28.0692C25.1976 28.0692 24.9916 28.1545 24.8397 28.3064C24.6878 28.4584 24.6024 28.6644 24.6024 28.8792V31.86C24.5839 32.1102 24.4715 32.3441 24.2877 32.5148C24.1039 32.6855 23.8624 32.7804 23.6115 32.7804C23.3607 32.7804 23.1191 32.6855 22.9353 32.5148C22.7515 32.3441 22.6391 32.1102 22.6206 31.86V27.6534C22.6206 27.4386 22.5353 27.2326 22.3834 27.0806C22.2315 26.9287 22.0254 26.8434 21.8106 26.8434C21.5958 26.8434 21.3898 26.9287 21.2379 27.0806C21.086 27.2326 21.0006 27.4386 21.0006 27.6534V28.5714C21.0006 28.5714 21.0006 28.5984 21.0006 28.6092V29.6892C21.0006 29.9513 20.8965 30.2026 20.7112 30.388C20.5259 30.5733 20.2745 30.6774 20.0124 30.6774H19.9206C19.6632 30.6732 19.4176 30.5687 19.2361 30.3862C19.0545 30.2036 18.9514 29.9574 18.9486 29.7V20.8116L21.006 17.9172C21.1025 17.7797 21.1534 17.6154 21.1518 17.4474V14.2992H30.24V17.4474C30.2399 17.5708 30.2676 17.6926 30.321 17.8038L34.695 26.7948C35.208 27.7668 35.1648 28.5876 34.56 29.1222V29.16Z" fill="white"/>
</svg>
